X:139
T: Amerikanisches Lied (2-25), S. 63
N: K1113
O: Luxemburg
S: KINTZELE, Guillaume: An der Ucht, Bd. 2, Luxemburg 1927]
R: Abschieds-, Trennungslied]
M: 4/4
L: 1/16
K: G
DDD2D2 | G6B,2E6D2 | D4C4z2
AAA2B2 | A6G2F6E2 | E4D4z2
DDD2D2 | G4G4A4D4 | B6
A2G2F2E2c2 | B8A8 | G8z2

@@@ Tune index: 8193
